!!!COM: Scriabin, Alexander
!!!OTL@@FR: Poème
!!!OTL@@EN: Poem
!!!OPR@@FR: 2 Poèmes
!!!OPR@@EN: 2 Poems
!!!OPS: 71
!!!ONM: 2
!!!ODT: 1914
!!!AGN: Poem
**kern	**kern	**dynam
*staff2	*staff1	*staff1/2
*Ipiano	*Ipiano	*
*clefF4	*clefG2	*
*k[]	*k[]	*
*X:	*X:	*
*M3/4	*M3/4	*
=1	=1	=1
*^	*	*
12DL	4rc	8r	.
12c	.	.	.
.	.	4ee-X	.
12f#XJ	.	.	.
12rEE	2b-X	.	.
12f#L	.	.	.
.	.	4een	.
12cJ	.	.	.
12f#L	.	.	.
12c	.	.	.
.	.	8aa	.
12DJ	.	.	.
=2	=2	=2	=2
*	*	*^	*
12GG#XL	4rc	4rc	4raa	.
12F#X	.	.	.	.
12cJ	.	.	.	.
.	.	.	8qdd/	.
4rEE	12aL	4rc	4.ddd	.
.	12f#X	.	.	.
.	[12eJ	.	.	.
4rEE	4e]	4dd	.	.
.	.	.	8ddd	.
=3	=3	=3	=3	=3
*	*^	*	*	*
12D\L	4rEE	4rc	4ee-X	4ddd	.
12c\	.	.	.	.	.
12f#X\J	.	.	.	.	.
12r	12rEE	2b-X	[4een	4ccc#X	.
12f#\L	[6f#	.	.	.	.
[12c\J	.	.	.	.	.
4c\]	12f#L]	.	12eeL]	4cccn	.
.	12fn	.	12ffn	.	.
.	12eJ	.	12ff#XJ	.	.
*	*v	*v	*	*	*
=4	=4	=4	=4	=4
12e-XL	2a	2.gg	2.bbn	.
12Fn	.	.	.	.
12e-J	.	.	.	.
12aL	.	.	.	.
12e-	.	.	.	.
12aJ	.	.	.	.
*clefG2	*	*	*	*
4rc	12dd-XL	.	.	.
.	12ddn	.	.	.
.	12ee-XJ	.	.	.
*v	*v	*	*	*
*	*v	*v	*
=5	=5	=5
12r	2.bb	.
12aL	.	.
12ee-XJ	.	.
12aaL	.	.
12ee-	.	.
12aaJ	.	.
12ddd-XL	.	.
12dddn	.	.
12eee-XJ	.	.
*clefF4	*	*
=6	=6	=6
*^	*	*
12DL	4rc	8r	.
12c	.	.	.
.	.	4ee-X	.
12f#XJ	.	.	.
12rEE	2b-X	.	.
12f#L	.	.	.
.	.	4een	.
12cJ	.	.	.
12f#L	.	.	.
12c	.	.	.
.	.	8aa	.
12DJ	.	.	.
=7	=7	=7	=7
*	*	*^	*
12GG#XL	4rc	8rc	2.ddd	.
12F#X	.	.	.	.
.	.	4dd 4aa	.	.
12cJ	.	.	.	.
4rEE	12aL	.	.	.
.	12f#X	.	.	.
.	.	4dd 4aa	.	.
.	[12eJ	.	.	.
4rEE	4e]	.	.	.
.	.	8dd 8aa	.	.
*	*	*v	*v	*
=8	=8	=8	=8
12DL	4rc	8r	.
12c	.	.	.
.	.	4ee-X	.
12f#XJ	.	.	.
12rEE	2b-X	.	.
12f#L	.	.	.
.	.	8een	.
12cJ	.	.	.
12f#L	.	8aaL	.
12c	.	.	.
.	.	8dddJ	.
12DJ	.	.	.
=9	=9	=9	=9
*	*	*^	*
12BBL	4rc	8rc	2.fffn	.
12A	.	.	.	.
.	.	4ffn 4ccc	.	.
12d#XJ	.	.	.	.
*clefG2	*	*	*	*
4rc	12ccL	.	.	.
.	12a	.	.	.
.	.	4ff 4ccc	.	.
.	[12gJ	.	.	.
4rc	4g]	.	.	.
.	.	8ff 8ccc	.	.
*clefF4	*	*	*	*
=10	=10	=10	=10	=10
4rEE	12g-XL	8rc	2.ggg-X	.
.	12e-X	.	.	.
.	.	4gg-X 4ddd-X	.	.
.	[12d-XJ	.	.	.
12AL	2d-]	.	.	.
12E-X	.	.	.	.
.	.	4gg- 4ddd-	.	.
12FFJ	.	.	.	.
4rEE	.	.	.	.
.	.	8gg- 8ddd-	.	.
=11	=11	=11	=11	=11
4rEE	12cL	8rc	2.gggn	.
.	12A	.	.	.
.	.	4ggn 4ccc	.	.
.	[12GnJ	.	.	.
12D#XL	2G]	.	.	.
12AA	.	.	.	.
.	.	4gg 4ccc	.	.
12BBBJ	.	.	.	.
4rEE	.	.	.	.
.	.	8gg 8ccc	.	.
=12	=12	=12	=12	=12
12EEE#XL 12EE#X	4rc	8rc	8raa	.
12D#X	.	.	.	.
.	.	[8gg#X	[8ggg#X	.
12AJ	.	.	.	.
*clefG2	*	*	*	*
12rc	2c#X 2cc#X	4.gg#]	4.ggg#]	.
12aL	.	.	.	.
12d#XJ	.	.	.	.
*clefF4	*	*	*	*
12AL	.	.	.	.
12D#	.	.	.	.
.	.	8ggn	8gggn	.
12EE#J	.	.	.	.
*	*	*v	*v	*
=13	=13	=13	=13
12BBL	4rc	8r	.
12E#X	.	.	.
.	.	[8gg [8ggg	.
12d#XJ	.	.	.
*clefG2	*	*	*
12rc	2cn 2ccn	12ggL] 12ggg]	.
12aL	.	12dd#X 12ddd#X	.
12d#XJ	.	12ccJ 12ccc	.
4rc	.	6a 6aa	.
.	.	12g 12gg	.
*clefF4	*	*	*
=14	=14	=14	=14
12EE#XL	4rc	8r	.
12D#X	.	.	.
.	.	[8gg#X	.
12AJ	.	.	.
*clefG2	*	*	*
12rc	2c#X 2cc#X	4.gg#]	.
12aL	.	.	.
12d#XJ	.	.	.
*clefF4	*	*	*
12AL	.	.	.
12D#	.	.	.
.	.	8ggn	.
12EE#J	.	.	.
=15	=15	=15	=15
12BBL	4rc	8r	.
12E#X	.	.	.
.	.	[8gg	.
12d#XJ	.	.	.
*clefG2	*	*	*
12rc	2cn 2ccn	12ggL]	.
12aL	.	12dd#X	.
12d#XJ	.	12ccJ	.
4rc	.	6a	.
.	.	12g	.
*clefF4	*	*	*
=16	=16	=16	=16
8EE#X 8BB	4rc	8A 8d#X 8g#X	.
32rEE	.	[8ggn	.
32BBLLL	.	.	.
32E#X	.	.	.
32d#XJJJ	.	.	.
*clefG2	*	*	*
12rc	2c 2cc	12ggL]	.
12aL	.	12dd#X	.
12d#XJ	.	12ccJ	.
4rc	.	6a	.
.	.	12gn	.
*clefF4	*	*	*
=17	=17	=17	=17
8EE#X 8BB	4rc	8A 8d#X 8g#X	.
32rEE	.	[8bb--	.
32D-XLLL	.	.	.
32Gn	.	.	.
32fJJJ	.	.	.
*clefG2	*	*	*
12rc	2e-- 2ee--	12bb--L]	.
12cc-XL	.	12ff	.
12fJ	.	12ee--J	.
4rc	.	6cc-X	.
.	.	12b--	.
*clefF4	*	*	*
=18	=18	=18	=18
8GG 8D-X	4rc	8c-X 8f 8b-X	.
32rEE	.	[8ddd-X	.
32BBnLLL	.	.	.
32F	.	.	.
32e-XJJJ	.	.	.
*clefG2	*	*	*
12rc	2g-X 2gg-X	12ddd-L]	.
12ee-XL	.	12aa	.
12aJ	.	12gg-XJ	.
4rc	.	6ee-X	.
.	.	12dd-X	.
*clefF4	*	*	*
=19	=19	=19	=19
12FL	4rc	8r	.
12e-X	.	.	.
.	.	4gg-X	.
12aJ	.	.	.
*clefG2	*	*	*
12rc	2dd-X	.	.
*clefF4	*	*	*
12aL	.	.	.
.	.	4ggn	.
12e-J	.	.	.
12aL	.	.	.
12e-	.	.	.
.	.	8ccc	.
12FJ	.	.	.
=20	=20	=20	=20
*	*	*^	*
12BBL	4rc	4rc	4raa	.
12A	.	.	.	.
12e-XJ	.	.	.	.
.	.	.	8qff/	.
*clefG2	*	*	*	*
4rc	12ccL	4rc	8fffL	.
.	12a	.	.	.
.	.	.	[8fffJ	.
.	[12gJ	.	.	.
4rc	4g]	4ff	16fffKL]	.
.	.	.	8fff	.
.	.	.	16fffJk	.
*v	*v	*	*	*
*clefF4	*	*	*
=21	=21	=21	=21
*^	*	*	*
*	*^	*	*	*
12F\L	4rEE	4rc	4gg-X	4fff	.
12e-X\	.	.	.	.	.
12a\J	.	.	.	.	.
*clefG2	*	*	*	*	*
12r	12rc	2dd-X	[4ggn	4eeen	.
12a\L	[6a	.	.	.	.
[12e-\J	.	.	.	.	.
4e-/]	12aL]	.	12ggL]	4eee-X	.
.	12a-X	.	12aa-X	.	.
.	12gJ	.	12aanJ	.	.
*	*v	*v	*	*	*
=22	=22	=22	=22	=22
12g-XL	2cc	2.bb-X	2.dddn	.
12A-X	.	.	.	.
12g-J	.	.	.	.
12ccL	.	.	.	.
12g-	.	.	.	.
12ccJ	.	.	.	.
4rc	12ff-XL	.	.	.
.	12ffn	.	.	.
.	12gg-XJ	.	.	.
*v	*v	*	*	*
*	*v	*v	*
=23	=23	=23
12r	2.ddd	.
12ccL	.	.
12gg-XJ	.	.
12cccL	.	.
12gg-	.	.
12cccJ	.	.
12fff-XL	.	.
12fffn	.	.
12ggg-XJ	.	.
*clefF4	*	*
=24	=24	=24
*^	*	*
12FL	4rc	8r	.
12e-X	.	.	.
.	.	4gg-X	.
12aJ	.	.	.
*clefG2	*	*	*
12rc	2dd-X	.	.
*clefF4	*	*	*
12aL	.	.	.
.	.	4ggn	.
12e-J	.	.	.
12aL	.	.	.
12e-	.	.	.
.	.	8ccc	.
12FJ	.	.	.
=25	=25	=25	=25
*	*	*^	*
12BBL	4rc	8rc	2.fff	.
12A	.	.	.	.
.	.	4ff 4ccc	.	.
12e-XJ	.	.	.	.
*clefG2	*	*	*	*
4rc	12ccL	.	.	.
.	12a	.	.	.
.	.	4ff 4ccc	.	.
.	[12gJ	.	.	.
4rc	4g]	.	.	.
.	.	8ff 8ccc	.	.
*	*	*v	*v	*
*clefF4	*	*	*
=26	=26	=26	=26
12FL	4rc	8r	.
12e-X	.	.	.
.	.	4gg-X	.
12aJ	.	.	.
*clefG2	*	*	*
12rc	2dd-X	.	.
*clefF4	*	*	*
12aL	.	.	.
.	.	8ggn	.
12e-J	.	.	.
12aL	.	8cccL	.
12e-	.	.	.
.	.	8fffJ	.
12FJ	.	.	.
=27	=27	=27	=27
*	*	*^	*
12DL	4rc	8rc	2.aaa-X	.
12c	.	.	.	.
.	.	4aa-X 4eee-X	.	.
12f#XJ	.	.	.	.
*clefG2	*	*	*	*
4rc	12ee-XL	.	.	.
.	12cc	.	.	.
.	.	4aa- 4eee-	.	.
.	[12b-XJ	.	.	.
4rc	4b-]	.	.	.
.	.	8aa- 8eee-	.	.
*clefF4	*	*	*	*
=28	=28	=28	=28	=28
4rEE	12aL	8rc	2.aaan	.
.	12f#X	.	.	.
.	.	4aan 4eeen	.	.
.	[12enJ	.	.	.
12B#XL	2e]	.	.	.
12F#X	.	.	.	.
.	.	4aa 4eee	.	.
12GG#XJ	.	.	.	.
4rEE	.	.	.	.
.	.	8aa 8eee	.	.
=29	=29	=29	=29	=29
4rEE	12e-XL	8rc	2.bbb-X	.
.	12c	.	.	.
.	.	4bb-X 4eee-X	.	.
.	[12B-XJ	.	.	.
12F#XL	2B-]	.	.	.
12C	.	.	.	.
.	.	4bb- 4eee-	.	.
12DDJ	.	.	.	.
4rEE	.	.	.	.
.	.	8bb- 8eee-	.	.
=30	=30	=30	=30	=30
12GGG#XL 12GG#X	4rc	8rc	8raa	.
12F#X	.	.	.	.
.	.	[8bbn	[8bbbn	.
12cJ	.	.	.	.
*clefG2	*	*	*	*
12rc	2en 2een	4.bb]	4.bbb]	.
12ccL	.	.	.	.
12f#XJ	.	.	.	.
*clefF4	*	*	*	*
12cL	.	.	.	.
12F#	.	.	.	.
.	.	8bb-X	8bbb-X	.
12GG#J	.	.	.	.
*	*	*v	*v	*
=31	=31	=31	=31
12DL	4rc	8r	.
12G#X	.	.	.
.	.	[8bb-X [8bbb-X	.
12f#XJ	.	.	.
*clefG2	*	*	*
12rc	2e-X 2ee-X	12bb-L] 12bbb-]	.
12ccL	.	12ff#X 12fff#X	.
12f#XJ	.	12ee-XJ 12eee-X	.
4rc	.	6cc 6ccc	.
.	.	12b-X 12bb-	.
*clefF4	*	*	*
=32	=32	=32	=32
12GG#XL	4rc	8r	.
12F#X	.	.	.
.	.	[8bbn	.
12cJ	.	.	.
*clefG2	*	*	*
12rc	2en 2een	4.bb]	.
12ccL	.	.	.
12f#XJ	.	.	.
*clefF4	*	*	*
12cL	.	.	.
12F#	.	.	.
.	.	8bb-X	.
12GG#J	.	.	.
=33	=33	=33	=33
12DL	4rc	8r	.
12G#X	.	.	.
.	.	[8bb-X	.
12f#XJ	.	.	.
*clefG2	*	*	*
12rc	2e-X 2ee-X	12bb-L]	.
12ccL	.	12ff#X	.
12f#XJ	.	12ee-XJ	.
4rc	.	6cc	.
.	.	12b-X	.
*clefF4	*	*	*
=34	=34	=34	=34
8GG#X 8D	4rc	8c 8f#X 8bn	.
32rEE	.	[8bb-X	.
32DLLL	.	.	.
32G#X	.	.	.
32f#XJJJ	.	.	.
*clefG2	*	*	*
12rc	2e-X 2ee-X	12bb-L]	.
12ccL	.	12ff#X	.
12f#XJ	.	12ee-XJ	.
4rc	.	6cc	.
.	.	12b-X	.
*clefF4	*	*	*
=35	=35	=35	=35
8GG#X 8D	4rc	8c 8f#X 8bn	.
32rEE	.	[8ccc	.
32EnLLL	.	.	.
32A#X	.	.	.
32g#XJJJ	.	.	.
*clefG2	*	*	*
12rc	2fn 2ffn	12cccL]	.
12ddL	.	12gg#X	.
12g#XJ	.	12ffJ	.
4rc	.	6dd	.
.	.	12cc	.
*clefF4	*	*	*
=36	=36	=36	=36
8AA#X 8E	4rc	8d 8g#X 8cc#X	.
32rEE	.	[8eee	.
32DLLL	.	.	.
32G#X	.	.	.
32f#XJJJ	.	.	.
*clefG2	*	*	*
12rc	2an 2aan	12eeeL]	.
12ff#XL	.	12cccn	.
12ccJ	.	12aaJ	.
4rc	.	6ff#X	.
.	.	12ee	.
*v	*v	*	*
*clefF4	*	*
=37	=37	=37
*	*^	*
4r	4rc	4raa	.
4r	4rc	4raa	.
4GG#X 4D 4c	20eeLL	4ee	.
.	20cc	.	.
.	20a	.	.
.	20f#X	.	.
.	20eJJ	.	.
*	*v	*v	*
=38	=38	=38
[20e-XLL	2.f#X 2.cc 2.ffn	.
[20c 20e-_	.	.
[20B-X 20c_ 20e-_	.	.
[20F#X 20B-_ 20c_ 20e-_	.	.
[20DDJJ 20F#_ 20B-_ 20c_ 20e-_	.	.
2DD] 2F#] 2B-] 2c] 2e-]	.	.
==	==	==
*-	*-	*-
!!!system-decoration: {(*)}
!!!ENC: Bryan Jacob Bell
!!!END: November 2021 to April 2022
!!!PED: Günter Philipp
!!!PTL: Ausgewählte Klavierwerke (Edition Peters)
